X: 41160
T: Tripping On The Mountain
R: polka
M: 2/4
K: Dmajor
|:(3A/B/c/|dD FD|dD DB/c/|dD FD|BE EB/c/|
dD FD|dg fe|d/c/B A/B/c|dD D:|
|:f/g/|af ge|fd df/g/|af ge|eE Ef/g/|
af ge|fd ec|d/c/B/A/ Bc|dD D:|

